X: 14
T: James Gannon's Clog
T: Clog, G
L: 1/16
M: C
K: G
|: B4A2B2 e4d2B2| d4c2A2 E4F2G2| A2^G2A2B2 c2A2F2A2| G2A2B2G2 D8| 
B4A2B2 e4d2B2| d4c2A2 E4F2G2| A2^G2A2B2 c2A2F2A2| [1 G4g4 g8:| [2 G4g4 g4g2f2|]
|: e2^d2e2f2 g2f2g2a2| b4d4 d8| c2B2A2B2 c2d2e2f2| g4B4 B2g2f2g2| 
e2^d2e2f2 g2f2g2a2| b4d4 d8| c2B2A2B2 c2d2e2f2| [1 g4f2a2 g4g2f2:| [2 g4f2a2 g8|]
D: Kinnon and Betty Beaton, Saturday Night Lively, KB20M98
